X: 1
T: Reed's
M: 4/4
L: 1/8
R: reel
K: Gmaj
|:BA G2 BA G2 | A2B2 c4 | cB A2 cB A2 | B2c2 d4 |
dc B2 g2d2 | e2f2 g2e2 | d2c2 B2A2 | BAG2 G4:|
|:g2d2 d2c2 | BAG2 G2B2 | cBA2 cBA2  | Bcd2 d2g2 | 
g2d2 d2c2 | BAG2 G2c2 | cBA2 cBA2  | BA G2 G4:|
